symbols/web/alarm_add/materialsymbolsoutlined/alarm_add_wght600grad200_20px.svg

<svg xmlns="http://www.w3.org/2000/svg" height="20" width="20"><path d="M8.854 14.354h2.292v-2.375h2.416V9.667h-2.416V7.25H8.854v2.417H6.479v2.312h2.375Zm1.167 4.771q-1.709 0-3.219-.656-1.51-.657-2.656-1.792Q3 15.542 2.344 14.031q-.656-1.51-.656-3.239 0-1.709.656-3.219Q3 6.062 4.146 4.917q1.146-1.146 2.656-1.792 1.51-.646 3.219-.646 1.708 0 3.229.646 1.521.646 2.646 1.792 1.125 1.145 1.781 2.645.656 1.5.656 3.23 0 1.729-.656 3.239-.656 1.511-1.781 2.646t-2.646 1.792q-1.521.656-3.229.656ZM10 10.833ZM4.354 1l1.625 1.604-4.208 4.188L.167 5.188Zm11.313 0 4.208 4.188-1.604 1.604-4.209-4.188ZM10 16.479q2.375 0 4.031-1.667 1.657-1.666 1.657-4.02 0-2.354-1.657-4.011Q12.375 5.125 10 5.125q-2.354 0-4.01 1.646-1.657 1.646-1.657 4.021t1.657 4.031q1.656 1.656 4.01 1.656Z"/></svg>

<svg xmlns="http://www.w3.org/2000/svg" height="20" width="20"><path d="M8.854 14.354H11.146V11.979H13.562V9.667H11.146V7.25H8.854V9.667H6.479V11.979H8.854ZM10.021 19.125Q8.312 19.125 6.802 18.469Q5.292 17.812 4.146 16.677Q3 15.542 2.344 14.031Q1.688 12.521 1.688 10.792Q1.688 9.083 2.344 7.573Q3 6.062 4.146 4.917Q5.292 3.771 6.802 3.125Q8.312 2.479 10.021 2.479Q11.729 2.479 13.25 3.125Q14.771 3.771 15.896 4.917Q17.021 6.062 17.677 7.562Q18.333 9.062 18.333 10.792Q18.333 12.521 17.677 14.031Q17.021 15.542 15.896 16.677Q14.771 17.812 13.25 18.469Q11.729 19.125 10.021 19.125ZM10 10.833Q10 10.833 10 10.833Q10 10.833 10 10.833Q10 10.833 10 10.833Q10 10.833 10 10.833Q10 10.833 10 10.833Q10 10.833 10 10.833Q10 10.833 10 10.833Q10 10.833 10 10.833ZM4.354 1 5.979 2.604 1.771 6.792 0.167 5.188ZM15.667 1 19.875 5.188 18.271 6.792 14.062 2.604ZM10 16.479Q12.375 16.479 14.031 14.812Q15.688 13.146 15.688 10.792Q15.688 8.438 14.031 6.781Q12.375 5.125 10 5.125Q7.646 5.125 5.99 6.771Q4.333 8.417 4.333 10.792Q4.333 13.167 5.99 14.823Q7.646 16.479 10 16.479Z"/></svg>
